shared/images/iconfont/kb-iconfont-clipboard-16.svg

<?xml version="1.0" encoding="UTF-8"?>
<svg width="16px" height="16px" viewBox="0 0 16 16" version="1.1" xmlns="http://www.w3.org/2000/svg" xmlns:xlink="http://www.w3.org/1999/xlink">
    <!-- Generator: sketchtool 49.2 (51160) - http://www.bohemiancoding.com/sketch -->
    <title>1E9A94B4-7243-4FC7-9656-8861D5F2E370</title>
    <desc>Created with sketchtool.</desc>
    <defs></defs>
    <g id="Colors,-icons" stroke="none" stroke-width="1" fill="none" fill-rule="evenodd">
        <g id="Icons-2" transform="translate(-491.000000, -395.000000)">
            <g id="kb-iconfont-clipboard-16" transform="translate(491.000000, 395.000000)">
                <rect id="icon-area" x="0" y="0" width="16" height="16"></rect>
                <path d="M14,7 L12,7 L12,5 L3,5 L3,14 L12,14 L12,13 L14,13 L14,14.6666667 C13.9978903,15.4021482 13.4170945,15.9978362 12.7,16 L2.3,16 C1.5829055,15.9978362 1.00210968,15.4021482 1,14.6666667 L1,4.36302882 C1.00209548,3.62754123 1.58289959,3.0318447 2.3,3.02969549 L4.57703239,3.02969549 C4.57703239,1.55693615 6.06405965,0 7.5,0 C8.93594035,0 10.4615603,1.55693615 10.4615603,3.02969549 L12.7,3.02969549 C13.4171004,3.0318447 13.9979045,3.62754123 14,4.36302882 L14,7 Z M7.66666667,4 C8.40303718,3.99997791 8.99997791,3.40303718 9,2.66666667 C9,1.930287 8.40304633,1.33333333 7.66666667,1.33333333 C6.930287,1.33333333 6.33333333,1.930287 6.33333333,2.66666667 C6.33333333,3.40304633 6.930287,4 7.66666667,4 Z M14,9.00274109 C14.5522847,9.00274109 15,9.45045634 15,10.0027411 C15,10.5550258 14.5522847,11.0027411 14,11.0027411 L11,11.0027411 L11,12.3960744 C10.9918017,12.6465415 10.8359353,12.868333 10.6030589,12.9609049 C10.3701826,13.0534769 10.1045842,12.9992242 9.92666667,12.8227411 L7,10.0027411 L9.92666667,7.18274109 C10.1045842,7.00625797 10.3701826,6.9520053 10.6030589,7.04457726 C10.8359353,7.13714923 10.9918017,7.3589407 11,7.60940776 L11,9.00274109 L14,9.00274109 Z" id="Combined-Shape" fill="#000000" fill-rule="nonzero"></path>
            </g>
        </g>
    </g>
</svg>

<svg xmlns="http://www.w3.org/2000/svg" width="16" height="16" viewBox="0 0 16 16">
    <g fill="none" fill-rule="evenodd">
        <path d="M0 0h16v16H0z"/>
        <path fill="#000" fill-rule="nonzero" d="M14 7h-2V5H3v9h9v-1h2v1.667c-.002.735-.583 1.33-1.3 1.333H2.3c-.717-.002-1.298-.598-1.3-1.333V4.363c.002-.735.583-1.331 1.3-1.333h2.277C4.577 1.557 6.064 0 7.5 0s2.962 1.557 2.962 3.03H12.7c.717.002 1.298.598 1.3 1.333V7zM7.667 4a1.333 1.333 0 1 0 0-2.667 1.333 1.333 0 0 0 0 2.667zM14 9.003a1 1 0 0 1 0 2h-3v1.393a.63.63 0 0 1-1.073.427L7 10.003l2.927-2.82A.63.63 0 0 1 11 7.609v1.394h3z"/>
    </g>
</svg>
